X:1
T:Title
%%score { 1 | ( 2 3 ) }
L:1/8
M:3/4
K:Bb
V:1 treble nm="Grand Piano"
V:2 bass 
V:3 bass 
V:1
 z2 z2[Q:1/4=106] [DF]2 | [DB]3 [DF] [EA]>[EG] | [DF]2 [B,D]2 [DF]2 | [DB]3 [CA] [Ec]>[DB] | %4
[M:2/4] [CA]4 |[M:1/4] [A,C]D |[M:3/4] E3 F GA | [DB]2 [DF]2 D2 | C3 A GA |[M:2/4] F2 G2 | %10
[M:1/4] A2 |[M:3/4] [DB]3 [DF] [Ec]>[DB] | B2 A2 F2 | c3 =B cd |[M:2/4] [DB]4 |[M:1/4] [DF]2 | %16
[M:3/4] [Fd]3 [Fd] [=E_d][F=d] | [Ge]2 G2 B2 | A3 G A>c |[M:2/4] [DB]4 |] %20
V:2
 z2 z2 [B,,F,]2 | [B,,F,]3 [B,,B,] [B,,B,]>[B,,B,] | [B,,B,]2 [B,,F,]2 [B,,F,]2 | %3
 [B,,F,]3 [B,,F,] [B,,F,]>[B,,F,] |[M:2/4] F,4 |[M:1/4] z B, |[M:3/4] [F,C]3 [F,D] [F,E][F,E] | %7
 [B,,F,]2 [B,,B,]2 [B,,F,B,]2 | [C,F,A,]3 [C,F,C] [C,=E,B,][C,E,B,] |[M:2/4] A,2 C2 | %10
[M:1/4] [F,E]2 |[M:3/4] [B,,F,]3 [B,,F,] [B,,F,]>[B,,F,] | [F,D]2 [F,C]2 [F,E]2 | %13
 [F,A,E]3 [F,_A,D] [F,=A,E][F,F] |[M:2/4] [B,,F,]4 |[M:1/4] [B,,B,]2 | %16
[M:3/4] [B,,B,]3 [B,,B,] [B,,B,][B,,B,] | [E,B,]2 [E,B,E]2 [E,G,E]2 | [F,CE]3 [F,CE] [F,CE]>[A,E] | %19
[M:2/4] [B,,B,]4 |] %20
V:3
 x6 | x6 | x6 | x6 |[M:2/4] x4 |[M:1/4] F,2 |[M:3/4] x6 | x6 | x6 |[M:2/4] F,4 |[M:1/4] x2 | %11
[M:3/4] x6 | x6 | x6 |[M:2/4] x4 |[M:1/4] x2 |[M:3/4] x6 | x6 | x6 |[M:2/4] x4 |] %20

